src/assets/icon/delete.svg

<svg width="20" height="20" viewBox="0 0 20 20" fill="none" xmlns="http://www.w3.org/2000/svg">
<mask id="mask0_338_2572" style="mask-type:alpha" maskUnits="userSpaceOnUse" x="0" y="0" width="20" height="20">
<rect width="20" height="20" fill="#D9D9D9"/>
</mask>
<g mask="url(#mask0_338_2572)">
<path d="M6.08979 17.0831C5.67549 17.0831 5.32083 16.9356 5.02583 16.6406C4.73083 16.3456 4.58333 15.991 4.58333 15.5767V4.99978H4.375C4.19792 4.99978 4.04951 4.93985 3.92979 4.81999C3.80993 4.70013 3.75 4.55165 3.75 4.37457C3.75 4.19735 3.80993 4.04895 3.92979 3.92936C4.04951 3.80964 4.19792 3.74978 4.375 3.74978H7.5C7.5 3.54575 7.57188 3.37186 7.71563 3.22811C7.85924 3.0845 8.03306 3.0127 8.23708 3.0127H11.7629C11.9669 3.0127 12.1408 3.0845 12.2844 3.22811C12.4281 3.37186 12.5 3.54575 12.5 3.74978H15.625C15.8021 3.74978 15.9505 3.80971 16.0702 3.92957C16.1901 4.04943 16.25 4.1979 16.25 4.37499C16.25 4.55221 16.1901 4.70061 16.0702 4.8202C15.9505 4.93992 15.8021 4.99978 15.625 4.99978H15.4167V15.5767C15.4167 15.991 15.2692 16.3456 14.9742 16.6406C14.6792 16.9356 14.3245 17.0831 13.9102 17.0831H6.08979ZM14.1667 4.99978H5.83333V15.5767C5.83333 15.6515 5.85736 15.713 5.90542 15.761C5.95347 15.8091 6.01493 15.8331 6.08979 15.8331H13.9102C13.9851 15.8331 14.0465 15.8091 14.0946 15.761C14.1426 15.713 14.1667 15.6515 14.1667 15.5767V4.99978ZM8.46188 14.1664C8.63896 14.1664 8.78736 14.1066 8.90708 13.9869C9.02667 13.867 9.08646 13.7185 9.08646 13.5414V7.29145C9.08646 7.11436 9.02653 6.96589 8.90667 6.84603C8.78694 6.72631 8.63847 6.66645 8.46125 6.66645C8.28417 6.66645 8.13576 6.72631 8.01604 6.84603C7.89646 6.96589 7.83667 7.11436 7.83667 7.29145V13.5414C7.83667 13.7185 7.89653 13.867 8.01625 13.9869C8.13611 14.1066 8.28465 14.1664 8.46188 14.1664ZM11.5387 14.1664C11.7158 14.1664 11.8642 14.1066 11.984 13.9869C12.1035 13.867 12.1633 13.7185 12.1633 13.5414V7.29145C12.1633 7.11436 12.1035 6.96589 11.9837 6.84603C11.8639 6.72631 11.7153 6.66645 11.5381 6.66645C11.361 6.66645 11.2126 6.72631 11.0929 6.84603C10.9733 6.96589 10.9135 7.11436 10.9135 7.29145V13.5414C10.9135 13.7185 10.9735 13.867 11.0933 13.9869C11.2131 14.1066 11.3615 14.1664 11.5387 14.1664Z" fill="black"/>
</g>
</svg>

<svg xmlns="http://www.w3.org/2000/svg" width="20" height="20" fill="none" xmlns:v="https://vecta.io/nano"><mask id="A" maskUnits="userSpaceOnUse" x="0" y="0" width="20" height="20" mask-type="alpha"><path fill="#d9d9d9" d="M0 0h20v20H0z"/></mask><g mask="url(#A)"><path d="M6.09 17.083a1.45 1.45 0 0 1-1.064-.443 1.45 1.45 0 0 1-.442-1.064V5h-.208c-.177 0-.325-.06-.445-.18s-.18-.268-.18-.445.06-.326.18-.445.268-.18.445-.18H7.5a.71.71 0 0 1 .216-.522.71.71 0 0 1 .521-.215h3.526a.71.71 0 0 1 .521.215.71.71 0 0 1 .216.522h3.125c.177 0 .325.06.445.18s.18.268.18.445-.06.326-.18.445-.268.18-.445.18h-.208v10.577a1.45 1.45 0 0 1-.443 1.064 1.45 1.45 0 0 1-1.064.443H6.09zM14.167 5H5.833v10.577a.25.25 0 0 0 .256.256h7.82a.25.25 0 0 0 .257-.256V5zm-5.705 9.167c.177 0 .325-.06.445-.179s.179-.268.179-.446v-6.25c0-.177-.06-.326-.18-.445s-.268-.18-.445-.18-.325.06-.445.18-.179.268-.179.445v6.25c0 .177.06.326.18.446s.268.179.446.179zm3.077 0c.177 0 .325-.06.445-.179s.179-.268.179-.446v-6.25c0-.177-.06-.326-.18-.445s-.268-.18-.446-.18-.325.06-.445.18-.179.268-.179.445v6.25c0 .177.06.326.18.446s.268.179.445.179z" fill="#000"/></g></svg>
